svgs/solid/torii-gate.svg

<svg xmlns="http://www.w3.org/2000/svg" viewBox="0 0 512 512"><!-- Font Awesome Pro 6.0.0-alpha2 by @fontawesome - https://fontawesome.com License - https://fontawesome.com/license (Commercial License) --><path d="M480 128C497.625 128 512 113.625 512 96V0C469.875 21 423.5 32 376.5 32H135.5C88.5 32 42.125 21 0 0V96C0 113.625 14.375 128 32 128H64V192H16C7.125 192 0 199.125 0 208V240C0 248.875 7.125 256 16 256H64V496C64 504.875 71.125 512 80 512H112C120.875 512 128 504.875 128 496V256H384V496C384 504.875 391.125 512 400 512H432C440.875 512 448 504.875 448 496V256H496C504.875 256 512 248.875 512 240V208C512 199.125 504.875 192 496 192H448V128H480ZM224 192H128V128H224V192ZM384 192H288V128H384V192Z"/></svg>

<svg xmlns="http://www.w3.org/2000/svg" viewBox="0 0 512 512"><!-- Font Awesome Pro 5.15.1 by @fontawesome - https://fontawesome.com License - https://fontawesome.com/license (Commercial License) --><path d="M376.45 32h-240.9A303.17 303.17 0 0 1 0 0v96c0 17.67 14.33 32 32 32h32v64H16c-8.84 0-16 7.16-16 16v32c0 8.84 7.16 16 16 16h48v240c0 8.84 7.16 16 16 16h32c8.84 0 16-7.16 16-16V256h256v240c0 8.84 7.16 16 16 16h32c8.84 0 16-7.16 16-16V256h48c8.84 0 16-7.16 16-16v-32c0-8.84-7.16-16-16-16h-48v-64h32c17.67 0 32-14.33 32-32V0a303.17 303.17 0 0 1-135.55 32zM128 128h96v64h-96v-64zm256 64h-96v-64h96v64z"/></svg>
